assets/images/kijiji-logo-110x57.svg

<svg height="57" viewBox="0 0 110 57" width="110" xmlns="http://www.w3.org/2000/svg"><g fill="none" fill-rule="evenodd"><path d="m31.4073879 21.7457344v21.6894712c0 .4246687.3511679.7689307.7843512.7689307h6.2556522c.4275699-.0076689.7700056-.3496949.7700056-.7689307v-22.5427967c.0008567-.2232543-.0973013-.4358536-.2689713-.5825498-.17167-.1466963-.3999008-.2130041-.6253821-.1816922l-6.2365218.8533255c-.3898434.051734-.6802871.3785774-.6791338.764242z" fill="#373373"/><path d="m64.0199943 21.7457344v21.6894712c0 .4246687.3511702.7689307.7843535.7689307h6.2508696c.4331833 0 .7843535-.344262.7843535-.7689307v-22.5427967c.0008566-.2232543-.0973014-.4358536-.2689714-.5825498-.17167-.1466963-.3999008-.2130041-.6253821-.1816922l-6.2508696.8533255c-.3879434.0538668-.6758306.3801309-.6743535.764242z" fill="#373373"/><path d="m96.60869 21.7457344v21.6894712c0 .4246687.3511701.7689307.7843535.7689307h6.2508695c.433183 0 .784354-.344262.784354-.7689307v-22.5427967c.000856-.2232543-.097302-.4358536-.268972-.5825498-.17167-.1466963-.399901-.2130041-.625382-.1816922l-6.2508695.8533255c-.3879435.0538668-.6758306.3801309-.6743535.764242z" fill="#373373"/><ellipse cx="35.319565" cy="10.155511" fill="#f8aa17" rx="4.863913" ry="4.768308"/><ellipse cx="51.628261" cy="4.768308" fill="#f1454f" rx="4.863913" ry="4.768308"/><ellipse cx="67.932174" cy="10.155511" fill="#2681db" rx="4.863913" ry="4.768308"/><ellipse cx="84.236087" cy="4.768308" fill="#37a864" rx="4.863913" ry="4.768308"/><ellipse cx="100.544783" cy="10.155511" fill="#9b44ad" rx="4.863913" ry="4.768308"/><g fill="#373373"><path d="m15.4191304 27.93 10.3352174-11.9887544c.203602-.2280661.2515579-.5521045.1224641-.8274911s-.4111533-.4507446-.7202902-.4478086h-7.7765217c-.237725-.0005387-.4628712.1046485-.6121739.2860047l-8.54173914 10.3149237c-.06135469.0727983-.16254265.1003041-.25337684.0688751-.09083419-.0314289-.15199377-.1151076-.1531449-.2095332v-22.17239716c0-.42466869-.35116449-.76893067-.78434783-.76893067l-6.25086956.90021151c-.48304348.07970623-.78434783.34226792-.78434783.76893067v39.58117505c0 .4246687.35116448.7689456.78434783.7689456h6.25565217c.43318334 0 .78434783-.3442769.78434783-.7689456v-12.0215746c-.00014482-.1047605.06928594-.1974154.17130223-.2286017.1020163-.0311862.21286103.0063587.27348037.0926323l8.98652177 12.5982726c.147348.2065198.3885756.3291421.6456521.328217h7.652174c.299696.0018086.5742545-.1639533.7074711-.4271433s.1018014-.5777955-.0809494-.8106624l-10.7656522-14.8347356c-.0425057-.0613034-.0405841-.1423099.0047826-.2016099z"/><path d="m54.6413043 14.7456522-6.2508695.8533255c-.3898435.051734-.6802872.3785774-.6791305.764242v27.329859c.0015749.7955344-.0399328 1.5905898-.1243478 2.3818097-.0630781.6640097-.2460703 1.3117378-.5404348 1.9129494-.2617979.5121844-.6643092.942509-1.1621739 1.2424795-.6130814.3338032-1.307953.4959968-2.0086956.4688601-.3197124-.0038057-.6389971-.0241512-.9565218-.0609518l-.4017391-.0562632c-.7413043-.1500353-.9565217.2484959-1.0091304.4688602 0 .1031492-.0573913.3703995-.0573913.3703995-.2008696 1.4065805-.5165218 3.4930082-.6647826 4.6886016-.0366348.2325091.0262748.4695302.1738611.6550469.1475863.1855168.3667533.3030675.6057041.3248709.243913.0421974.5069565.0797062.8226087.1219036.7235034.0901438 1.4516149.1402351 2.1808695.1500353 2.2526087 0 4.1082609-.3563337 5.5143479-1.0549354 1.3401076-.6458965 2.4917728-1.6136348 3.347826-2.813161.8496401-1.2505116 1.4200774-2.6629536 1.6739131-4.1447238.2963862-1.6468587.4420381-3.3163911.4352174-4.9886722v-27.8549824c-.0003257-.2233818-.0997249-.4355831-.2723403-.5814025-.1726154-.1458193-.4013824-.2108412-.6267902-.1781509z"/><path d="m87.4452174 15.3739248-6.2508696-.6564042c-.2160942-.0168703-.4296744.0546881-.5900363.1976869-.160362.1429988-.2532041.344685-.2564854.5571779v12.2419389 15.9787544c.0015748.7955344-.0399329 1.5905898-.1243478 2.3818097-.0630781.6640097-.2460703 1.3117378-.5404348 1.9129494-.2601608.5196963-.664649.9568628-1.1669565 1.2612339-.6130815.3338032-1.3079531.4959968-2.0086957.4688601-.3197124-.0038056-.638997-.0241512-.9565217-.0609518l-.4017392-.0562632c-.7413043-.1500352-.9565217.2484959-1.0091304.4688602 0 .1031492-.0573913.3703995-.0573913.3703995-.2008696 1.4065805-.5165217 3.4930082-.6647826 4.6886016-.0366348.2325091.0262749.4695302.1738612.6550469.1475862.1855168.3667532.3030675.605704.3248709.243913.0421974.5069565.0797062.8226087.1219036.7235035.0901439 1.4516149.1402351 2.1808696.1500353 2.2526087 0 4.1082608-.3563337 5.5143478-1.0549354 1.3401076-.6458965 2.4917728-1.6136348 3.3478261-2.813161.84964-1.2505116 1.4200773-2.6629536 1.673913-4.1447238.2963863-1.6468587.4420381-3.3163911.4352174-4.9886722v-27.2360869c.0011036-.4036329-.3163328-.7393979-.7269565-.7689307z"/><path d="m107.69 20.4845006h-.559565v1.4065805h-.339565v-1.4065805h-.564348v-.3235135h1.468261z"/><path d="m109.746522 21.8723267h-.344348v-1.0783784l-.047826.1500352-.392174.9377204h-.286957l-.392174-.9377204-.047826-.1500352v1.0783784h-.339565v-1.7113396h.392174l.478261 1.0971328.038261.0984606.038261-.0984606.478261-1.0971328h.392173z"/></g></g></svg>

<?xml version="1.0" encoding="UTF-8"?>
<svg width="110px" height="57px" viewBox="0 0 110 57" version="1.1" xmlns="http://www.w3.org/2000/svg">
    <title>Logo / Kijiji</title>
    <g id="Mobile-App-Loader-Screen" stroke="none" stroke-width="1" fill="none" fill-rule="evenodd">
        <g id="Logo-/-Kijiji-/-Full-/-Colour">
            <g id="Kijiji_logo_PURPLE_RGB_EN">
                <path d="M31.4073879,21.7457344 L31.4073879,43.4352056 C31.4073879,43.8598743 31.7585558,44.2041363 32.1917391,44.2041363 L38.4473913,44.2041363 C38.8749612,44.1964674 39.2173969,43.8544414 39.2173969,43.4352056 L39.2173969,20.8924089 C39.2182536,20.6691546 39.1200956,20.4565553 38.9484256,20.3098591 C38.7767556,20.1631628 38.5485248,20.096855 38.3230435,20.1281669 L32.0865217,20.9814924 C31.6966783,21.0332264 31.4062346,21.3600698 31.4073879,21.7457344 L31.4073879,21.7457344 Z"
                      id="Path" fill="#373373"></path>
                <path d="M64.0199943,21.7457344 L64.0199943,43.4352056 C64.0199943,43.8598743 64.3711645,44.2041363 64.8043478,44.2041363 L71.0552174,44.2041363 C71.4884007,44.2041363 71.8395709,43.8598743 71.8395709,43.4352056 L71.8395709,20.8924089 C71.8404275,20.6691546 71.7422695,20.4565553 71.5705995,20.3098591 C71.3989295,20.1631628 71.1706987,20.096855 70.9452174,20.1281669 L64.6943478,20.9814924 C64.3064044,21.0353592 64.0185172,21.3616233 64.0199943,21.7457344 L64.0199943,21.7457344 Z"
                      id="Path" fill="#373373"></path>
                <path d="M96.60869,21.7457344 L96.60869,43.4352056 C96.60869,43.8598743 96.9598601,44.2041363 97.3930435,44.2041363 L103.643913,44.2041363 C104.077096,44.2041363 104.428267,43.8598743 104.428267,43.4352056 L104.428267,20.8924089 C104.429123,20.6691546 104.330965,20.4565553 104.159295,20.3098591 C103.987625,20.1631628 103.759394,20.096855 103.533913,20.1281669 L97.2830435,20.9814924 C96.8951,21.0353592 96.6072129,21.3616233 96.60869,21.7457344 L96.60869,21.7457344 Z"
                      id="Path" fill="#373373"></path>
                <ellipse id="Oval" fill="#F8AA17" cx="35.3195652" cy="10.1555112" rx="4.86391304"
                         ry="4.76830787"></ellipse>
                <ellipse id="Oval" fill="#F1454F" cx="51.6282609" cy="4.76830787" rx="4.86391304"
                         ry="4.76830787"></ellipse>
                <ellipse id="Oval" fill="#2681DB" cx="67.9321739" cy="10.1555112" rx="4.86391304"
                         ry="4.76830787"></ellipse>
                <ellipse id="Oval" fill="#37A864" cx="84.236087" cy="4.76830787" rx="4.86391304"
                         ry="4.76830787"></ellipse>
                <ellipse id="Oval" fill="#9B44AD" cx="100.544783" cy="10.1555112" rx="4.86391304"
                         ry="4.76830787"></ellipse>
                <path d="M15.4191304,27.93 L25.7543478,15.9412456 C25.9579498,15.7131795 26.0059057,15.3891411 25.8768119,15.1137545 C25.7477181,14.8383679 25.4656586,14.6630099 25.1565217,14.6659459 L17.38,14.6659459 C17.142275,14.6654072 16.9171288,14.7705944 16.7678261,14.9519506 L8.22608696,25.2668743 C8.16473227,25.3396726 8.06354431,25.3671784 7.97271012,25.3357494 C7.88187593,25.3043205 7.82071635,25.2206418 7.81956522,25.1262162 L7.81956522,2.95381904 C7.81956522,2.52915035 7.46840073,2.18488837 7.03521739,2.18488837 L0.784347826,3.08509988 C0.301304348,3.16480611 0,3.4273678 0,3.85403055 L0,43.4352056 C0,43.8598743 0.351164483,44.2041512 0.784347826,44.2041512 L7.04,44.2041512 C7.47318334,44.2041512 7.82434783,43.8598743 7.82434783,43.4352056 L7.82434783,31.413631 C7.82420301,31.3088705 7.89363377,31.2162156 7.99565006,31.1850293 C8.09766636,31.1538431 8.20851109,31.191388 8.26913043,31.2776616 L17.2556522,43.8759342 C17.4030002,44.082454 17.6442278,44.2050763 17.9013043,44.2041512 L25.5534783,44.2041512 C25.8531743,44.2059598 26.1277328,44.0401979 26.2609494,43.7770079 C26.394166,43.5138179 26.3627508,43.1992124 26.18,42.9663455 L15.4143478,28.1316099 C15.3718421,28.0703065 15.3737637,27.9893 15.4191304,27.93 Z"
                      id="Path" fill="#373373"></path>
                <path d="M54.6413043,14.7456522 L48.3904348,15.5989777 C48.0005913,15.6507117 47.7101476,15.9775551 47.7113043,16.3632197 L47.7113043,43.6930787 C47.7128792,44.4886131 47.6713715,45.2836685 47.5869565,46.0748884 C47.5238784,46.7388981 47.3408862,47.3866262 47.0465217,47.9878378 C46.7847238,48.5000222 46.3822125,48.9303468 45.8843478,49.2303173 C45.2712664,49.5641205 44.5763948,49.7263141 43.8756522,49.6991774 C43.5559398,49.6953717 43.2366551,49.6750262 42.9191304,49.6382256 L42.5173913,49.5819624 L42.5173913,49.5819624 C41.776087,49.4319271 41.5608696,49.8304583 41.5082609,50.0508226 C41.5082609,50.1539718 41.4508696,50.4212221 41.4508696,50.4212221 C41.25,51.8278026 40.9343478,53.9142303 40.786087,55.1098237 C40.7494522,55.3423328 40.8123618,55.5793539 40.9599481,55.7648706 C41.1075344,55.9503874 41.3267014,56.0679381 41.5656522,56.0897415 C41.8095652,56.1319389 42.0726087,56.1694477 42.3882609,56.2116451 C43.1117643,56.3017889 43.8398758,56.3518802 44.5691304,56.3616804 C46.8217391,56.3616804 48.6773913,56.0053467 50.0834783,55.306745 C51.4235859,54.6608485 52.5752511,53.6931102 53.4313043,52.493584 C54.2809444,51.2430724 54.8513817,49.8306304 55.1052174,48.3488602 C55.4016036,46.7020015 55.5472555,45.0324691 55.5404348,43.360188 L55.5404348,15.5052056 C55.5401091,15.2818238 55.4407099,15.0696225 55.2680945,14.9238031 C55.0954791,14.7779838 54.8667121,14.7129619 54.6413043,14.7456522 L54.6413043,14.7456522 Z"
                      id="Path" fill="#373373"></path>
                <path d="M87.4452174,15.3739248 L81.1943478,14.7175206 C80.9782536,14.7006503 80.7646734,14.7722087 80.6043115,14.9152075 C80.4439495,15.0582063 80.3511074,15.2598925 80.3478261,15.4723854 L80.3478261,27.7143243 L80.3478261,27.7143243 L80.3478261,43.6930787 C80.3494009,44.4886131 80.3078932,45.2836685 80.2234783,46.0748884 C80.1604002,46.7388981 79.977408,47.3866262 79.6830435,47.9878378 C79.4228827,48.5075341 79.0183945,48.9447006 78.516087,49.2490717 C77.9030055,49.5828749 77.2081339,49.7450685 76.5073913,49.7179318 C76.1876789,49.7141262 75.8683943,49.6937806 75.5508696,49.65698 L75.1491304,49.6007168 L75.1491304,49.6007168 C74.4078261,49.4506816 74.1926087,49.8492127 74.14,50.069577 C74.14,50.1727262 74.0826087,50.4399765 74.0826087,50.4399765 C73.8817391,51.846557 73.566087,53.9329847 73.4178261,55.1285781 C73.3811913,55.3610872 73.444101,55.5981083 73.5916873,55.783625 C73.7392735,55.9691418 73.9584405,56.0866925 74.1973913,56.1084959 C74.4413043,56.1506933 74.7043478,56.1882021 75.02,56.2303995 C75.7435035,56.3205434 76.4716149,56.3706346 77.2008696,56.3804348 C79.4534783,56.3804348 81.3091304,56.0241011 82.7152174,55.3254994 C84.055325,54.6796029 85.2069902,53.7118646 86.0630435,52.5123384 C86.9126835,51.2618268 87.4831208,49.8493848 87.7369565,48.3676146 C88.0333428,46.7207559 88.1789946,45.0512235 88.1721739,43.3789424 L88.1721739,16.1428555 C88.1732775,15.7392226 87.8558411,15.4034576 87.4452174,15.3739248 L87.4452174,15.3739248 Z"
                      id="Path" fill="#373373"></path>
                <polygon id="Path" fill="#373373"
                         points="107.69 20.4845006 107.130435 20.4845006 107.130435 21.8910811 106.79087 21.8910811 106.79087 20.4845006 106.226522 20.4845006 106.226522 20.1609871 107.694783 20.1609871"></polygon>
                <polygon id="Path" fill="#373373"
                         points="109.746522 21.8723267 109.402174 21.8723267 109.402174 20.7939483 109.354348 20.9439835 108.962174 21.8817039 108.675217 21.8817039 108.283043 20.9439835 108.235217 20.7939483 108.235217 21.8723267 107.895652 21.8723267 107.895652 20.1609871 108.287826 20.1609871 108.766087 21.2581199 108.804348 21.3565805 108.842609 21.2581199 109.32087 20.1609871 109.713043 20.1609871"></polygon>
            </g>
        </g>
    </g>
</svg>
